X: 19347
T: Jack Robinson
R: polka
M: 2/4
K: Gmajor
|:DG F/G/A/B/|c/B/A/c/ BG|D/F/A/F/ D/F/A/d/|e/d/^c/e/ d>d|
e/d/^c/e/ dB|c/B/A/c/ BG|DG F/G/A/c/|1 BG G>E:|2 BG GB/c/||
|:dd Bd|eA AB/c/|dd Bd|e/d/c/B/ AD|
GF/G/ AB|c/B/A/c/ BG|DG F/G/A/c/|1 BG GB/c/:|2 BG G2||
DG F/G/A/B/|c/B/A/c/ BG|D/F/A/F/ D/F/A/d/|e/d/^c/e/ d>d|
e/d/^c/e/ dB|c/B/A/c/ BG|DG F/G/A/c/|BG:|
dd Bd|eA AB/c/|dd Bd|e/d/c/B/ AD|
GF/G/ AB|c/B/A/c/ BG|DG F/G/A/c/|BG:|

